projects/oblique/icons/Archive.svg

<?xml version="1.0" encoding="UTF-8"?><svg id="a" xmlns="http://www.w3.org/2000/svg" viewBox="0 0 24 24"><path d="M22.74365,9.60791l-1.7583-6.42188H3.06055l-1.77588,6.21582-.02881,3.67383h1.11877l-.01868,7.73828h19.24658l.01868-7.73828h1.12244v-3.46777ZM4.19238,4.68604h15.65332l1.16077,4.17188H3.00018l1.1922-4.17188ZM2.75586,11.57569v-1.21777h18.48779v1.21777H2.75586ZM7.53662,13.07569h8.74219v.74902H7.53662v-.74902ZM20.10645,19.31397H3.85986l.01483-6.23828h2.16193v2.24902h11.74219v-2.24902h2.34247l-.01483,6.23828Z"/></svg>

<svg xmlns="http://www.w3.org/2000/svg" viewBox="0 0 24 24"><title>Archive</title><path d="M22.74365,9.60791,20.98535,3.186H3.06055L1.28467,9.40186l-.02881,3.67383H2.37463L2.356,20.814H21.60254l.01868-7.73828h1.12243ZM4.19238,4.686H19.8457l1.16077,4.17187H3.00018ZM2.75586,11.57569V10.35791H21.24365v1.21778Zm4.78076,1.5h8.74219v.749H7.53662ZM20.10645,19.314H3.85986l.01483-6.23828H6.03662v2.249H17.77881v-2.249h2.34247Z" fill="#171717"/></svg>
